X:1
T:Title
%%score { ( 1 3 ) | ( 2 4 ) }
L:1/8
M:4/4
K:G
V:1 treble nm="Grand Piano"
V:3 treble 
V:2 bass 
V:4 bass 
V:1
 z4 z2[Q:1/4=110] D2 | [B,DG]2 [B,DG]2 [CFA]2 [CFA]2 | [DGB]6 G2 | B2 B2 c2 A2 | %4
[M:3/4] d6[K:bass] |[M:1/4][K:treble] d2 |[M:4/4] [Ge]2 [Ec]2 [EG]2 [Ge]>[Ge] | %7
[M:9/8] d2 B- B G2- G A2 |[M:4/4] [GB]2 [GB]2 [FA]2 [FA]2 |[M:3/4] [B,G]6 |] %10
V:2
 z4 z2 D,2 | G,2 G,2 D,2 D,2 | G,2 D,2 G,2[K:treble] [G,B,D]2 | [G,D]2 [G,D]2 [A,DF]2 [A,CF]2 | %4
[M:3/4] [B,G]6 |[M:1/4] [G,B,G]2 |[M:4/4][K:bass] [D,C]2 [C,G,]2 [C,C]2 [C,C]>[C,C] | %7
[M:9/8][K:treble] [G,B,G]2 [G,DG]- [G,DG] [A,^CE]2- [A,CE][K:bass] [A,CE]2 | %8
[M:4/4] [D,D]2 [D,D]2 [D,C]2 [D,C]2 |[M:3/4] [G,,G,]6 |] %10
V:3
 x8 | x8 | x8 | x8 |[M:3/4] z2[K:bass] D,2 G,2 |[M:1/4][K:treble] x2 |[M:4/4] x8 |[M:9/8] x9 | %8
[M:4/4] x8 |[M:3/4] x6 |] %10
V:4
 x8 | x8 | x6[K:treble] x2 | x8 |[M:3/4] G,2 z2 z2 |[M:1/4] x2 |[M:4/4][K:bass] x8 | %7
[M:9/8][K:treble] x7[K:bass] x2 |[M:4/4] x8 |[M:3/4] x6 |] %10

